dist/images/svg/doc.svg

<?xml version="1.0" encoding="UTF-8"?>
<svg width="38px" height="48px" viewBox="0 0 38 48" version="1.1" xmlns="http://www.w3.org/2000/svg" xmlns:xlink="http://www.w3.org/1999/xlink">
    <!-- Generator: Sketch 49.1 (51147) - http://www.bohemiancoding.com/sketch -->
    <title>doc</title>
    <desc>Created with Sketch.</desc>
    <defs>
        <path d="M36,38 L36,13 L25,13 L25,2 L2,2 L2,46 L16,46 L16,48 L27,48 L0,48 L0,0 L27.006897,0 L38,11.0142212 L38,48 L27,48 L38,48 L38,38 L36,38 Z M27.006897,3.0189209 L27.006897,11.0142212 L35.0204468,11.0142212 L27.006897,3.0189209 Z M7.90909091,14 L16.0909091,14 C16.5927273,14 17,13.553 17,13 C17,12.447 16.5927273,12 16.0909091,12 L7.90909091,12 C7.40727273,12 7,12.447 7,13 C7,13.553 7.40727273,14 7.90909091,14 Z M7.90909091,20 L29.0909091,20 C29.5927273,20 30,19.553 30,19 C30,18.447 29.5927273,18 29.0909091,18 L7.90909091,18 C7.40727273,18 7,18.447 7,19 C7,19.553 7.40727273,20 7.90909091,20 Z M7.90909091,26 L29.0909091,26 C29.5927273,26 30,25.553 30,25 C30,24.447 29.5927273,24 29.0909091,24 L7.90909091,24 C7.40727273,24 7,24.447 7,25 C7,25.553 7.40727273,26 7.90909091,26 Z M7.90909091,32 L29.0909091,32 C29.5927273,32 30,31.553 30,31 C30,30.447 29.5927273,30 29.0909091,30 L7.90909091,30 C7.40727273,30 7,30.447 7,31 C7,31.553 7.40727273,32 7.90909091,32 Z M17.957,40.3 L20.63,40.3 C21.561338,40.3 22.2909974,40.5804972 22.819,41.1415 C23.3470026,41.7025028 23.611,42.547661 23.611,43.677 L23.611,44.557 C23.611,45.7156725 23.3470026,46.5791638 22.819,47.1475 C22.2909974,47.7158362 21.561338,48 20.63,48 L17.957,48 L17.957,40.3 Z M20.63,46.878 C20.8940013,46.878 21.1286656,46.8358338 21.334,46.7515 C21.5393344,46.6671662 21.7134993,46.5333343 21.8565,46.35 C21.9995007,46.1666657 22.1094996,45.9265015 22.1865,45.6295 C22.2635004,45.3324985 22.302,44.9750021 22.302,44.557 L22.302,43.677 C22.302,42.8703293 22.1535015,42.2910018 21.8565,41.939 C21.5594985,41.5869982 21.1506693,41.411 20.63,41.411 L19.266,41.411 L19.266,46.878 L20.63,46.878 Z M27.89,48.088 C27.4279977,48.088 27.0118352,48.0165007 26.6415,47.8735 C26.2711648,47.7304993 25.9576679,47.5105015 25.701,47.2135 C25.444332,46.9164985 25.2481673,46.5425023 25.1125,46.0915 C24.9768327,45.6404977 24.909,45.1033365 24.909,44.48 L24.909,43.6 C24.909,42.470661 25.1729974,41.6236695 25.701,41.059 C26.2290026,40.4943305 26.958662,40.212 27.89,40.212 C28.821338,40.212 29.5509974,40.4943305 30.079,41.059 C30.6070026,41.6236695 30.871,42.470661 30.871,43.6 L30.871,44.48 C30.871,45.1033365 30.8031673,45.6404977 30.6675,46.0915 C30.5318327,46.5425023 30.3356679,46.9164985 30.079,47.2135 C29.822332,47.5105015 29.5088352,47.7304993 29.1385,47.8735 C28.7681648,48.0165007 28.3520023,48.088 27.89,48.088 Z M27.89,46.944 C28.1540013,46.944 28.3886656,46.9018338 28.594,46.8175 C28.7993344,46.7331662 28.9734993,46.5956676 29.1165,46.405 C29.2595007,46.2143324 29.3694996,45.9613349 29.4465,45.646 C29.5235004,45.3306651 29.562,44.9420023 29.562,44.48 L29.562,43.6 C29.562,42.7933293 29.4135015,42.2176684 29.1165,41.873 C28.8194985,41.5283316 28.4106693,41.356 27.89,41.356 C27.3693307,41.356 26.9605015,41.5283316 26.6635,41.873 C26.3664985,42.2176684 26.218,42.7933293 26.218,43.6 L26.218,44.48 C26.218,44.9420023 26.2564996,45.3306651 26.3335,45.646 C26.4105004,45.9613349 26.5204993,46.2143324 26.6635,46.405 C26.8065007,46.5956676 26.9806656,46.7331662 27.186,46.8175 C27.3913344,46.9018338 27.6259987,46.944 27.89,46.944 Z M35.15,48.088 C34.6879977,48.088 34.2718352,48.0165007 33.9015,47.8735 C33.5311648,47.7304993 33.217668,47.5105015 32.961,47.2135 C32.7043321,46.9164985 32.5081673,46.5406689 32.3725,46.086 C32.2368327,45.6313311 32.169,45.0923364 32.169,44.469 L32.169,43.589 C32.169,42.4669944 32.4329974,41.6236695 32.961,41.059 C33.4890026,40.4943305 34.218662,40.212 35.15,40.212 C36.0080043,40.212 36.6734976,40.4191646 37.1465,40.8335 C37.6195024,41.2478354 37.9146661,41.850996 38.032,42.643 L36.712,42.643 C36.6093328,42.2029978 36.4388345,41.878501 36.2005,41.6695 C35.9621655,41.460499 35.6120023,41.356 35.15,41.356 C34.6293307,41.356 34.2205015,41.5283316 33.9235,41.873 C33.6264985,42.2176684 33.478,42.7896627 33.478,43.589 L33.478,44.469 C33.478,44.9310023 33.5164996,45.3196651 33.5935,45.635 C33.6705004,45.9503349 33.7804993,46.2051657 33.9235,46.3995 C34.0665007,46.5938343 34.2406656,46.7331662 34.446,46.8175 C34.6513344,46.9018338 34.8859987,46.944 35.15,46.944 C35.6193357,46.944 35.9694988,46.8358344 36.2005,46.6195 C36.4315012,46.4031656 36.6019995,46.0676689 36.712,45.613 L38.032,45.613 C37.9073327,46.4563376 37.6066691,47.0796646 37.13,47.483 C36.653331,47.8863353 35.9933376,48.088 35.15,48.088 Z" id="path-1"></path>
    </defs>
    <g id="Symbols" stroke="none" stroke-width="1" fill="none" fill-rule="evenodd">
        <g id="File-type-/-Word">
            <mask id="mask-2" fill="white">
                <use xlink:href="#path-1"></use>
            </mask>
            <use id="Shape" fill="#1B39BA" fill-rule="nonzero" xlink:href="#path-1"></use>
            <rect id="Rectangle-2" fill="#3881D9" mask="url(#mask-2)" x="16" y="38" width="22" height="10"></rect>
        </g>
    </g>
</svg>

<svg width="38" height="48" viewBox="0 0 38 48" xmlns="http://www.w3.org/2000/svg" xmlns:xlink="http://www.w3.org/1999/xlink"><title>doc</title><defs><path d="M36 38V13H25V2H2v44h14v2h11H0V0h27.007L38 11.014V48H27h11V38h-2zM27.007 3.019v7.995h8.013L27.007 3.02zM7.909 14h8.182c.502 0 .909-.447.909-1 0-.553-.407-1-.91-1H7.91c-.503 0-.91.447-.91 1 0 .553.407 1 .91 1zm0 6h21.182c.502 0 .909-.447.909-1 0-.553-.407-1-.91-1H7.91c-.503 0-.91.447-.91 1 0 .553.407 1 .91 1zm0 6h21.182c.502 0 .909-.447.909-1 0-.553-.407-1-.91-1H7.91c-.503 0-.91.447-.91 1 0 .553.407 1 .91 1zm0 6h21.182c.502 0 .909-.447.909-1 0-.553-.407-1-.91-1H7.91c-.503 0-.91.447-.91 1 0 .553.407 1 .91 1zm10.048 8.3h2.673c.931 0 1.661.28 2.189.842.528.56.792 1.406.792 2.535v.88c0 1.159-.264 2.022-.792 2.59-.528.569-1.258.853-2.189.853h-2.673v-7.7zm2.673 6.578c.264 0 .499-.042.704-.127.205-.084.38-.218.523-.401a1.96 1.96 0 0 0 .33-.72c.077-.298.115-.655.115-1.073v-.88c0-.807-.148-1.386-.445-1.738-.298-.352-.706-.528-1.227-.528h-1.364v5.467h1.364zm7.26 1.21c-.462 0-.878-.071-1.248-.215a2.336 2.336 0 0 1-.941-.66 3.002 3.002 0 0 1-.588-1.121c-.136-.452-.204-.989-.204-1.612v-.88c0-1.13.264-1.976.792-2.541s1.258-.847 2.189-.847 1.661.282 2.189.847.792 1.412.792 2.541v.88c0 .623-.068 1.16-.203 1.612-.136.45-.332.824-.589 1.122-.257.297-.57.516-.94.66-.37.143-.787.214-1.249.214zm0-1.144c.264 0 .499-.042.704-.127a1.22 1.22 0 0 0 .522-.412c.144-.19.253-.444.33-.759.078-.315.116-.704.116-1.166v-.88c0-.807-.148-1.382-.446-1.727-.297-.345-.705-.517-1.226-.517-.52 0-.93.172-1.227.517-.297.345-.445.92-.445 1.727v.88c0 .462.038.85.116 1.166.077.315.186.568.33.759.143.19.317.328.522.413.205.084.44.126.704.126zm7.26 1.144c-.462 0-.878-.071-1.248-.215a2.336 2.336 0 0 1-.941-.66c-.257-.297-.453-.672-.588-1.127-.136-.455-.204-.994-.204-1.617v-.88c0-1.122.264-1.965.792-2.53.528-.565 1.258-.847 2.189-.847.858 0 1.523.207 1.997.621.473.415.768 1.018.885 1.81h-1.32c-.103-.44-.273-.764-.512-.974-.238-.209-.588-.313-1.05-.313-.52 0-.93.172-1.227.517-.297.345-.445.917-.445 1.716v.88c0 .462.038.85.115 1.166.078.315.187.57.33.765.144.194.318.333.523.418.205.084.44.126.704.126.47 0 .82-.108 1.05-.325.232-.216.402-.551.512-1.006h1.32c-.125.843-.425 1.467-.902 1.87-.477.403-1.137.605-1.98.605z" id="a"/></defs><g fill="none" fill-rule="evenodd"><mask id="b" fill="#fff"><use xlink:href="#a"/></mask><use fill="#1B39BA" fill-rule="nonzero" xlink:href="#a"/><path fill="#3881D9" mask="url(#b)" d="M16 38h22v10H16z"/></g></svg>
